X:09
T:Welch Air. 2voices. Dix.09
M:6/8
L:1/8
Q:3/8=80
S:Anon. MS dated 1811, from Dixon collection, Holton le Moor, Lincs.
R:air
N:Repeat marks added at start
O:England;Lincolnshire;Holton le Moor
Z:vmp.R.Greig 2010 <http://www.village-music-project.org.uk>
K:D
[V:1]|:{de}[f2d2A2][ec] {e}dcd|[B3G3]”rest added”z2[AF]|d2Ad2d|[e2A2][fA][d2A2F2][ec]|
[V:2]|:D,F,A, D,F,A,|D,F,A, D,F,A,|D,F,A, D,F,A,|C,E,G, D,2A,,|
[V:1]{de}[f2d2][ec] {e}dcd|[B3G3]”rest added”z2[AF]|d2Ad2d|e2fd2[ec]:|
[V:2]D,F,A, D,F,A,|D,G,B, D,F,A,|D,F,A, D,F,A,| C,E,A, [B,3B,,3]:|
[V:1]|:[f2d2][ec][f2d2][ge]|[a3f3]abc’|[d’b][ac’][gb] [af][ge][fd]|[ec][fd][ge] [f2d2]d|
[V:2]|:z6|D,F,D,A,,3|A,3 D,3|A,3F,3|
[V:1][f2d2][ec][f2d2][ge]|[a3f3]abc’|[d’b][ac’][gb] [af][ge][fd]|[f3d3]{ef}[e3c3]:|
[V:2]z6|D,F,A, A,,2A,|G,3D,3|A,B,A, !D.C.!G,F,E,:|

